web/ui/src/components/theme/button/svgs/help.svg

<svg height="16" viewBox="0 0 16 16" width="16" xmlns="http://www.w3.org/2000/svg"><g fill="none"><path d="m0 0h16v16h-16z" fill="#000" opacity="0"/><g fill="#6f8794"><path d="m8 1c-3.865625 0-7 3.134375-7 7s3.134375 7 7 7 7-3.134375 7-7-3.134375-7-7-7zm0 12.8125c-3.209375 0-5.8125-2.603125-5.8125-5.8125s2.603125-5.8125 5.8125-5.8125 5.8125 2.603125 5.8125 5.8125-2.603125 5.8125-5.8125 5.8125z"/><path d="m9.74375 4.9484375c-.46875-.4109375-1.0875-.6359375-1.74375-.6359375s-1.275.2265625-1.74375.6359375c-.4875.4265625-.75625 1-.75625 1.6140625v.11875c0 .06875.05625.125.125.125h.75c.06875 0 .125-.05625.125-.125v-.11875c0-.6890625.6734375-1.25 1.5-1.25s1.5.5609375 1.5 1.25c0 .4859375-.34375.93125-.8765625 1.1359375-.33125.1265625-.6125.3484375-.8140625.6390625-.2046875.296875-.3109375.653125-.3109375 1.0140625v.3359375c0 .06875.05625.125.125.125h.75c.06875 0 .125-.05625.125-.125v-.3546875c0-.3078125.19375-.5890625.4828125-.7.921875-.3546875 1.5171943-1.1671875 1.5171943-2.0703125.0015557-.6140625-.2671943-1.1875-.7546943-1.6140625z"/><path d="m7.375 11.4375c0 .345178.27982203.625.625.625s.625-.279822.625-.625-.27982203-.625-.625-.625-.625.279822-.625.625z"/></g></g></svg>

<?xml version="1.0" encoding="UTF-8"?>
<svg width="16px" height="16px" viewBox="0 0 16 16" version="1.1" xmlns="http://www.w3.org/2000/svg" xmlns:xlink="http://www.w3.org/1999/xlink">
    <title>question-circle</title>
    <g id="页面-1" stroke="none" stroke-width="1" fill="none" fill-rule="evenodd">
        <g id="系统设计规范" transform="translate(-1487.000000, -5512.000000)" fill-rule="nonzero">
            <g id="question-circle" transform="translate(1487.000000, 5512.000000)">
                <rect id="矩形" fill="#000000" opacity="0" x="0" y="0" width="16" height="16"></rect>
                <path d="M8,1 C4.134375,1 1,4.134375 1,8 C1,11.865625 4.134375,15 8,15 C11.865625,15 15,11.865625 15,8 C15,4.134375 11.865625,1 8,1 Z M8,13.8125 C4.790625,13.8125 2.1875,11.209375 2.1875,8 C2.1875,4.790625 4.790625,2.1875 8,2.1875 C11.209375,2.1875 13.8125,4.790625 13.8125,8 C13.8125,11.209375 11.209375,13.8125 8,13.8125 Z" id="形状" fill="#6F8794"></path>
                <path d="M9.74375,4.9484375 C9.275,4.5375 8.65625,4.3125 8,4.3125 C7.34375,4.3125 6.725,4.5390625 6.25625,4.9484375 C5.76875,5.375 5.5,5.9484375 5.5,6.5625 L5.5,6.68125 C5.5,6.75 5.55625,6.80625 5.625,6.80625 L6.375,6.80625 C6.44375,6.80625 6.5,6.75 6.5,6.68125 L6.5,6.5625 C6.5,5.8734375 7.1734375,5.3125 8,5.3125 C8.8265625,5.3125 9.5,5.8734375 9.5,6.5625 C9.5,7.0484375 9.15625,7.49375 8.6234375,7.6984375 C8.2921875,7.825 8.0109375,8.046875 7.809375,8.3375 C7.6046875,8.634375 7.4984375,8.990625 7.4984375,9.3515625 L7.4984375,9.6875 C7.4984375,9.75625 7.5546875,9.8125 7.6234375,9.8125 L8.3734375,9.8125 C8.4421875,9.8125 8.4984375,9.75625 8.4984375,9.6875 L8.4984375,9.3328125 C8.4984375,9.025 8.6921875,8.74375 8.98125,8.6328125 C9.903125,8.278125 10.4984443,7.465625 10.4984443,6.5625 C10.5,5.9484375 10.23125,5.375 9.74375,4.9484375 Z" id="路径" fill="#6F8794"></path>
                <path d="M7.375,11.4375 C7.375,11.782678 7.65482203,12.0625 8,12.0625 C8.34517797,12.0625 8.625,11.782678 8.625,11.4375 C8.625,11.092322 8.34517797,10.8125 8,10.8125 C7.65482203,10.8125 7.375,11.092322 7.375,11.4375 Z" id="路径" fill="#6F8794"></path>
            </g>
        </g>
    </g>
</svg>
